packages/icons/brands/Debank.svg

<svg fill="none" viewBox="0 0 24 24" xmlns="http://www.w3.org/2000/svg"><path clip-rule="evenodd" d="m21.677 16.4c0 3.645-3 6.6-6.7 6.6h-12.652v-4.4h12.654c1.233 0 2.233-.985 2.233-2.2s-1-2.2-2.233-2.2h-4.466v-4.4h4.466c1.233 0 2.233-.985 2.233-2.2s-1-2.2-2.233-2.2h-12.655v-4.4h12.654c3.7 0 6.699 2.955 6.699 6.6 0 1.69-.645 3.232-1.706 4.4a6.521 6.521 0 0 1 1.706 4.4z" fill="#fe815f" fill-rule="evenodd" opacity=".8"/><path clip-rule="evenodd" d="m2.324 5.4h10.869c-2.31-2.672-5.985-4.4-10.124-4.4-.25 0-.498.006-.745.019zm13.145 8.8h-4.213v-4.4h4.213a9.66 9.66 0 0 1 0 4.4zm-13.145 4.4h10.868c-2.308 2.672-5.984 4.4-10.122 4.4-.25 0-.498-.006-.745-.019v-4.381z" fill="#000" fill-rule="evenodd" opacity=".12"/><path d="m2.324 1c6.166 0 11.166 4.925 11.166 11s-5 11-11.166 11v-4.4c3.7 0 6.7-2.955 6.7-6.6s-3-6.6-6.7-6.6z" fill="#ff6238"/></svg>

<svg xmlns="http://www.w3.org/2000/svg" fill="none" viewBox="0 0 24 24">
    <path fill="#fe815f" fill-rule="evenodd" d="M21.677 16.4c0 3.645-3 6.6-6.7 6.6H2.325v-4.4h12.654c1.233 0 2.233-.985 2.233-2.2s-1-2.2-2.233-2.2h-4.466V9.8h4.466c1.233 0 2.233-.985 2.233-2.2s-1-2.2-2.233-2.2H2.324V1h12.654c3.7 0 6.699 2.955 6.699 6.6 0 1.69-.645 3.232-1.706 4.4a6.521 6.521 0 0 1 1.706 4.4z" clip-rule="evenodd" opacity=".8"/>
    <path fill="#000" fill-rule="evenodd" d="M2.324 5.4h10.869C10.883 2.728 7.208 1 3.069 1c-.25 0-.498.006-.745.019zm13.145 8.8h-4.213V9.8h4.213a9.66 9.66 0 0 1 0 4.4zM2.324 18.6h10.868C10.884 21.272 7.208 23 3.07 23c-.25 0-.498-.006-.745-.019V18.6z" clip-rule="evenodd" opacity=".12"/>
    <path fill="#ff6238" d="M2.324 1C8.49 1 13.49 5.925 13.49 12s-5 11-11.166 11v-4.4c3.7 0 6.7-2.955 6.7-6.6s-3-6.6-6.7-6.6z"/>
</svg>
